X:1
T:☭National Anthem of the USSR☭(SIMPLE)
T:☭National Anthem of the USSR☭(SIMPLE)
T:As sung by the Red Army Choir
T:Ausca lai
T:Ausca Lai Rights &amp; Co
T:Ausca Lai Rights &amp; Co
C:Ausca lai
Z:Ausca Lai Rights & Co
%%score { 1 | 2 }
L:1/8
Q:1/4=71
M:4/4
K:Eb
V:1 treble nm="Piano" snm="Pno."
V:2 bass 
V:1
"^Adagio"!ff! e4- e2 z B |!mf! e2 B>c d2 GG | c2 B>A B2 EE | F2 F>G A2 A>B | c2 de f3 B | %5
!f! g2 f>e f2 dB | e2 d>c!>(! d2 GG!>)! |!mf! c2 B>A B2 E>E | e2 d>c B3 z |!f! g4 fede | %10
 f3 B B3 z | e4 dcBc | d3 G GBcd |!mf! e2 c>d e2 c>d |!<(! e2 ce a(3a/a/a/ aa!<)! |!f! a4 gfef | %16
 g3 e e4 | f4 edcd | e3 c c4 |!>(! e2 d>c B2 EE!>)! |!mf! e2 d>c B2 AB |!f! e2 B>c d2 GG | %22
 c2 B>A B2 EE | F2 F>G A2 A>B | c2 de f3 B |!f! g2 f>e f2 dB | e2 d>c!>(! d2 GG!>)! | %27
!mf! c2 B>A B2 E>E | e2 d>c Bdef |!f! g4 fede | f3 B Bdef | e4 dcBc | d3 G GBcd | %33
!mf! e2 c>d e2 c>d |!<(! e2 ce a(3a/a/a/ aa!<)! |!ff! a4 gfef | g3 e e4 | f4 edcd | e3 c c4 | %39
!f! e2 dc B2 E>E |"_rit." [B,B]4 [Cc]2 [Dd]2 |!ff! !fermata![Ee]8 |] %42
V:2
 E,4- E,4 | E,2- E,2 G,2- G,2 | A,2- A,2 G,2- G,2 | F,2- F,2 E,2- E,2 | E,2 D,C, B,,A,G,F, | %5
 E,2 G,2 B,3 B, | C,2 E,2 G,3 G, | A,2 F,2 G,2- G,2 | F,2- F,2 B,A,G,F, | E,D,E,F, G,2 G,2 | %10
 B,,2 B,,F, B,,2 A,,G,, | C,G,,C,D, E,2- E,2 | G,,G,,B,,D, G,,2 F,B,, | A,,3 E, C2- CB, | %14
 A,3 E, CB,A,G, | F,3 G,,/A,,/ B,2 B,,2 | E,D,E,G, F,E,D,C, | D,3 E,,/F,,/ G,,2- G,,2 | %18
 C,D,,E,,F,, C2 B,2 | A,2 F,2 G,2- G,2 | F,2- F,2 B,2 B,,2 | E,2- E,2 G,2- G,2 | %22
 A,2- A,2 G,2- G,2 | F,2- F,2 E,2- E,2 | E,2 D,C, B,,A,G,F, | E,2 G,2 B,3 B, | C,2 E,2 G,3 G, | %27
 A,2 F,2 G,2 G,2 | F,2 F,2 B,A,G,F, | E,D,E,F, G,2 G,2 | B,,2 B,,F, B,,2 A,,G,, | %31
 C,G,,C,D, E,2- E,2 | G,,G,,B,,D, G,,2 F,B,, | A,,3 E, C2- CB, | A,3 E, CB,A,G, | %35
 F,3 G,,/A,,/ B,2 B,,2 | E,D,E,G, F,E,D,C, | D,3 E,,/F,,/ G,,2- G,,2 | D,3 E,,/F,,/ G,,2- G,,2 | %39
 A,2 F,2 G,2- G,2 | B,,4 A,,2 B,,2 | !fermata![E,,,E,,]8 |] %42

